X: 22
T: The Aardvark Man
C:Rich Holmes
N:Rich Holmes is/was a morris musician living in Syracuse, New York State
R:hornpipe
M:4/4
L:1/8
Q:1/4=120
K:G
(3DEF|:GG GG GA GA| GG (3GBd g2 e2|dd de de db|AA BG AD EF|
GG GG GA GA|GG (3GBd g2 a2|ba bg ag (3def|1 ge dB G2 (3DEF :|2 ge dB G2 gf|:
eB BB Bc Bc|BA (3GA^A B2 gf|eB dc BA (3GA^A|BA GF E2 gf|
eB BB Bc Bc|BA (3GA^A B2 eg|ba bg ag (3def|1 ge dB G2 gf :|2 ge dB G2 z2 ||
